img/favicon/safari-pinned-tab.svg

<?xml version="1.0" encoding="UTF-8"?>
<svg width="192px" height="192px" viewBox="0 0 192 192" version="1.1" xmlns="http://www.w3.org/2000/svg" xmlns:xlink="http://www.w3.org/1999/xlink">
    <!-- Generator: sketchtool 49 (51002) - http://www.bohemiancoding.com/sketch -->
    <title>2BF5894B-A358-4C2F-BDFD-ED5C65F229A0</title>
    <desc>Created with sketchtool.</desc>
    <defs></defs>
    <g id="Layout" stroke="none" stroke-width="1" fill="none" fill-rule="evenodd">
        <g id="Los-Angeles-Moving-Center-/-UI-Style-guide(v0.1)" transform="translate(-1023.000000, -1959.000000)">
            <g id="Favicon" transform="translate(97.000000, 1788.000000)">
                <g transform="translate(926.000000, 171.000000)">
                    <rect id="Rectangle-2" fill="#F26430" x="0" y="0" width="192" height="192"></rect>
                    <path d="M49.9729871,137.733821 C42.3137278,137.733821 36.6701477,135.960124 33.0420775,132.412678 C29.4140073,128.865231 27.5999994,123.18134 27.5999994,115.360833 L27.5999994,48 L48.5217663,48 L48.5217663,111.853716 C48.5217663,116.610519 50.8598209,118.988885 55.5360003,118.988885 L82.7463907,118.988885 L82.7463907,137.733821 L49.9729871,137.733821 Z M113.826703,48 L139.948678,48 L167.280004,137.733821 L145.632626,137.733821 L141.037094,121.407587 L112.496418,121.407587 L108.02182,137.733821 L86.4953778,137.733821 L113.826703,48 Z M136.199691,102.662651 L126.766756,65.8983901 L117.33382,102.662651 L136.199691,102.662651 Z" id="LA" fill="#FFFFFF"></path>
                </g>
            </g>
        </g>
    </g>
</svg>

<svg width="192" height="192" viewBox="0 0 192 192" xmlns="http://www.w3.org/2000/svg"><title>2BF5894B-A358-4C2F-BDFD-ED5C65F229A0</title><g fill="none" fill-rule="evenodd"><path fill="#F26430" d="M0 0h192v192H0z"/><path d="M49.973 137.734c-7.66 0-13.303-1.774-16.93-5.321-3.629-3.548-5.443-9.232-5.443-17.052V48h20.922v63.854c0 4.757 2.338 7.135 7.014 7.135h27.21v18.745H49.973zM113.827 48h26.122l27.331 89.734h-21.647l-4.596-16.326h-28.54l-4.475 16.326H86.495L113.827 48zm22.373 54.663l-9.433-36.765-9.433 36.765H136.2z" fill="#FFF"/></g></svg>
